X:1
T:O monumenti apritevi
T:Benedetto Ferrari
T:Source : Musiche Varie a voce sola---Libro terzo---Venetia---B.Magni---1641. Editor : André Vierendeels 15/01/17).
T:Notes : Original clefs C1, F4 Editorial accidentals above the staff Original note values have been halved in the 3-beat measures Figures BC are notated in original print m 23 in BC :"E flat" for "A flat"in original print m 31 in BC : "B" for "A" in original print m 32 in BC : "D" for "C" in original print   
T:O monumenti apritevi
T:©
T:©
T:©
T:©
C:Benedetto Ferrari
Z:©
%%score 1 2
L:1/8
Q:1/4=100
M:4/4
K:F
V:1 treble nm="Soprano" snm="S"
V:2 bass nm="MusicXML Part"
V:1
 d4 BAGG | z2 z g _e>d c/c/d/e/ | d3 c/B/ z4 |[M:6/4] z2 D3 E ^F2 E3 F | G2 ^F2 G2 _A2 G4 | %5
w: O Mo- nu- men- ti|a- pri- te- vi, _ _ a-|pri- te- vi,|non ve- de- te ch'io|mo- ro, ch'io mo- *|
 G4 d_e f2 e3 d | c4 c2 d4 df | g3 g f2 _e d2 e f2 | d4 z2 z2 D3 E | ^F2 E3 F G2 F2 G2 | %10
w: ro in la- scian- do co-|lei che tan- to, che|tan- to a- do- * * *|ro, non ve-|de- te ch'io mo- ro, ch'io|
 A2 G4 G4 AB | c2 B3 A A4 A2 | =B4 BB ^c4 cc | d3 d f2- fe d2 d2- |[M:3/4] d2 z2 z2 | %15
w: mo- * ro in la-|scian- do co- lei che|tan- to, che tan- to, cha|tan- to a- * * do- ro,|_|
[M:4/4] d4 BAGG | z g _e>d c/c/d/e/ d>c | B2 z2 z/ A/B/c/ B2- | BA G4 z2 || z G d2 f2 z g | %20
w: O Mu- nu- men- ti|a- pri- te- vi, _ _ a- pri- te-|vi, a- * * pri-|* te- vi,|non fia chi, non|
 _edc=B c4- | c2 =B2 B2 z2 |[M:6/4] z2 z2 GA B2 _A3 G | F2 F2 cd _e4 ed | d6- _d6- | %25
w: fia chi mi con- so-|* * li,|à la- sciar si bel|vi- so ar- di- rein di do-|ler- *|
 d2 c2 c2 c2 c2 _d2 | _dc B2 B4 z2 z2 | z2 z2 AB c2 B3 A | A2 A2 de f4 _ed | d12- | d12 | %31
w: * * mi in Pa- ra-|di- * * so,|à la- sciar _ si|bel vi- so'ar- di- rei di do-|ler-||
[M:4/4] d2 c/B/A/G/ ^FF z2 |[M:6/4] E2 ^F2 G2 G4 F2 | G12 |] %34
w: * * * * * * mi|in Pa- ra di- *|so.|
V:2
"^BC" G,8 |"^4""^b 6" G,8- | G,4 z4 |[M:6/4] G,,6 D,6 | _E,6 D,6 | G,,6 D,2 _E,4 | %6
 F,2 G,2 A,2 B,6 | _E,6 F,2 F,,4 | B,,4 z2 z2 B,,3 C, | D,2 C,3 D, _E,6 | D,6 G,6 |"^5 6" E,6 F,6 | %12
"^5 6""^5 6" G,6 A,6 |"^4""^#" B,2 G,4 A,2 A,,4 |[M:3/4] D,6 |[M:4/4] ^F,8 |"^4""^b 6" G,8- | %17
"^5""^6" G,2 z2 C,4 | D,4 G,,4 ||"^b""^7" G,8- | G,4 C,4 |"^-natural" _A,,4 G,,4 | %22
[M:6/4] G,6 _E,6 | B,6 C2 A,4 |"^6" B,2 D,4 _E,4 F,2 |"^5""^6" G,6 _E,6 | F,2 F,,4 B,,4 z2 | %27
 D,6 E,6 | F,4 G,2 A,6 | B,2 ^F,4 G,2 D,4 | _E,2 B,,4 B,,2 G,,4 |[M:4/4] D,6 z2 | %32
[M:6/4]"^5""^6""^#""^4" C,6 D,6 | G,,12 |] %34

